static/img/in-field/accordion-line-below-focus-dark.svg

<svg fill="none" height="57" viewBox="0 0 179 57" width="179" xmlns="http://www.w3.org/2000/svg" xmlns:xlink="http://www.w3.org/1999/xlink"><clipPath id="a"><rect height="56" rx="4" width="178" x=".5" y=".125"/></clipPath><g clip-path="url(#a)" fill="#fff"><path d="m31.4717 37.125h-1.8369v-14.0938h-4.9414v-1.6113h11.6982v1.6113h-4.9199zm9.0586-11.7734v11.7734h-1.7832v-11.7734zm-.8701-4.4043c.2936 0 .5442.0966.7519.29.2149.1862.3223.4798.3223.8809 0 .3938-.1074.6875-.3223.8808-.2077.1934-.4583.2901-.7519.2901-.308 0-.5658-.0967-.7735-.2901-.2005-.1933-.3008-.487-.3008-.8808 0-.4011.1003-.6947.3008-.8809.2077-.1934.4655-.29.7735-.29zm8.7041 14.9316c.2936 0 .5944-.0251.9023-.0752s.5586-.111.752-.1826v1.3857c-.2077.0931-.4978.1719-.8702.2364-.3652.0644-.7233.0966-1.0742.0966-.623 0-1.1888-.1074-1.6972-.3222-.5085-.222-.9167-.5944-1.2247-1.1172-.3007-.5228-.4511-1.2461-.4511-2.1699v-6.9825h-1.6758v-.8701l1.6865-.6982.709-2.5567h1.0742v2.7286h3.4483v1.3964h-3.4483v6.9288c0 .7376.1683 1.289.5049 1.6543.3438.3652.7985.5478 1.3643.5478zm6.083 1.2461h-1.794v-16.7148h1.794zm8.5537-11.9883c1.0026 0 1.862.222 2.5781.666s1.264 1.0671 1.6436 1.8692c.3795.7949.5693 1.7259.5693 2.7929v1.1065h-8.1318c.0214 1.3822.3652 2.4349 1.0312 3.1582s1.6042 1.085 2.8145 1.085c.7448 0 1.4036-.0681 1.9765-.2041.5729-.1361 1.1673-.3366 1.7832-.6016v1.5683c-.5944.265-1.1852.4584-1.7724.5801-.5801.1218-1.2676.1826-2.0625.1826-1.1315 0-2.1198-.2291-2.9649-.6875-.8379-.4655-1.4896-1.1458-1.9551-2.041s-.6982-1.9909-.6982-3.2871c0-1.2676.2113-2.3633.6338-3.2871.4297-.931 1.0312-1.6471 1.8047-2.1484.7806-.5013 1.6972-.752 2.75-.752zm-.0215 1.461c-.9525 0-1.7116.3115-2.2774.9345-.5657.6231-.9023 1.4932-1.0097 2.6104h6.2305c-.0072-.7018-.1182-1.3177-.3331-1.8477-.2076-.5371-.5263-.9525-.956-1.2461-.4297-.3008-.9811-.4511-1.6543-.4511z"/><path d="m155.95 24.675-2.5-2.5-6.95 6.9-6.95-6.9-2.5 2.5 9.45 9.4z"/></g><rect height="52" rx="2" stroke="#019aeb" stroke-width="4" width="174" x="2.5" y="2.125"/></svg>

<svg width="179" height="57" viewBox="0 0 179 57" fill="none" xmlns="http://www.w3.org/2000/svg"><g clip-path="url(#clip0_7209_84222)"><path d="M31.4717 37.125H29.6348V23.0312H24.6934V21.4199H36.3916V23.0312H31.4717V37.125ZM40.5303 25.3516V37.125H38.7471V25.3516H40.5303ZM39.6602 20.9473C39.9538 20.9473 40.2044 21.0439 40.4121 21.2373C40.627 21.4235 40.7344 21.7171 40.7344 22.1182C40.7344 22.512 40.627 22.8057 40.4121 22.999C40.2044 23.1924 39.9538 23.2891 39.6602 23.2891C39.3522 23.2891 39.0944 23.1924 38.8867 22.999C38.6862 22.8057 38.5859 22.512 38.5859 22.1182C38.5859 21.7171 38.6862 21.4235 38.8867 21.2373C39.0944 21.0439 39.3522 20.9473 39.6602 20.9473ZM48.3643 35.8789C48.6579 35.8789 48.9587 35.8538 49.2666 35.8037C49.5745 35.7536 49.8252 35.6927 50.0186 35.6211V37.0068C49.8109 37.0999 49.5208 37.1787 49.1484 37.2432C48.7832 37.3076 48.4251 37.3398 48.0742 37.3398C47.4512 37.3398 46.8854 37.2324 46.377 37.0176C45.8685 36.7956 45.4603 36.4232 45.1523 35.9004C44.8516 35.3776 44.7012 34.6543 44.7012 33.7305V26.748H43.0254V25.8779L44.7119 25.1797L45.4209 22.623H46.4951V25.3516H49.9434V26.748H46.4951V33.6768C46.4951 34.4144 46.6634 34.9658 47 35.3311C47.3438 35.6963 47.7985 35.8789 48.3643 35.8789ZM54.4473 37.125H52.6533V20.4102H54.4473V37.125ZM63.001 25.1367C64.0036 25.1367 64.863 25.3587 65.5791 25.8027C66.2952 26.2467 66.8431 26.8698 67.2227 27.6719C67.6022 28.4668 67.792 29.3978 67.792 30.4648V31.5713H59.6602C59.6816 32.9535 60.0254 34.0062 60.6914 34.7295C61.3574 35.4528 62.2956 35.8145 63.5059 35.8145C64.2507 35.8145 64.9095 35.7464 65.4824 35.6104C66.0553 35.4743 66.6497 35.2738 67.2656 35.0088V36.5771C66.6712 36.8421 66.0804 37.0355 65.4932 37.1572C64.9131 37.279 64.2256 37.3398 63.4307 37.3398C62.2992 37.3398 61.3109 37.1107 60.4658 36.6523C59.6279 36.1868 58.9762 35.5065 58.5107 34.6113C58.0452 33.7161 57.8125 32.6204 57.8125 31.3242C57.8125 30.0566 58.0238 28.9609 58.4463 28.0371C58.876 27.1061 59.4775 26.39 60.251 25.8887C61.0316 25.3874 61.9482 25.1367 63.001 25.1367ZM62.9795 26.5977C62.027 26.5977 61.2679 26.9092 60.7021 27.5322C60.1364 28.1553 59.7998 29.0254 59.6924 30.1426H65.9229C65.9157 29.4408 65.8047 28.8249 65.5898 28.2949C65.3822 27.7578 65.0635 27.3424 64.6338 27.0488C64.2041 26.748 63.6527 26.5977 62.9795 26.5977Z" fill="#fff"/><path d="M155.95 24.675L153.45 22.175L146.5 29.075L139.55 22.175L137.05 24.675L146.5 34.075L155.95 24.675Z" fill="#fff"/></g><rect x="2.5" y="2.125" width="174" height="52" rx="2" stroke="#019AEB" stroke-width="4"/><defs><clipPath id="clip0_7209_84222"><rect x=".5" y=".125" width="178" height="56" rx="4" fill="#fff"/></clipPath></defs></svg>
